X:1
T:Mēs pielūdzam - Adoro Te
T:Anonīms
T:Mēs pielūdzam - Adoro Te
C:Anonīms
%%score { ( 1 2 ) | ( 3 4 ) }
L:1/8
Q:1/4=80
M:4/4
K:A
V:1 treble nm="P1"
V:2 treble 
V:3 bass 
V:4 bass 
V:1
!p!"^Andante" E2 | A4 F4 | E4 z2 A2 | c2 c2 B2 A2 | B4 z2 E2 | A4 F4 | E4!mf! z2 d2 | c2 B2 A2 G2 | %8
w: 1.|pie- lū-|dzam, Tu|Mai- ze die- viš-|ķā, Tu|Svē- tais|Dievs, Tu|Vi- su- aug- stā-|
w: 2.|grē- cī-|gus, ak,|Kungs, jel ap- žē-|lo un|pie- do-|d(i), dod|svē- tī- bu mums,|
w: 3.|do- ro|Te,- o|pa- nis coe- li-|ce! O|Do- mi-|ne, o|De- us ma- xi-|
w: 4.|fa- mu-|los, o|De- us, res- pi-|ce et|gra- ti-|a nos|sem- per re- fi-|
 A4 z4 |!p! B4 B4 | c4 c4 | (d4 c4) | B4 z4 |!mf! (E2 F2) (G2 A2) | (B2 c2) (d2 B2) | %15
w: kais.|1.\-2. tais,|svē- tais,|svē- *|tais,|bez- * ga- *|lī- * * gi|
w: Dievs!|||||||
w: me!|3.\-4. ctus,|san- ctus,|san- *|tus|si- * ne _|fi- * * ne|
w: ce.|||||||
 A4"^-""^-" G4 | A4 z4 |!f! (B2 A2) (B2 d2) | (c2 B2) A4 | (B2 c2) (d2 c2) | (c4 B4) | %21
w: Svē- tais|Dievs.|1.\-2. * vi *|cil- * vēks|go- * di- *|na *|
w: ||||||
w: San- *|ctus.|3.\-4. * per *|Ti- * bi|glo- * ri- *|a *|
w: ||||||
 (A2 G2) (F2 B2) | c4 (d2 B2) | A4 G4 | A6 |] %25
w: Vi- * su- *|svē- tā *|Hos- ti-|jā.|
w: ||||
w: Sac- * ra _|sit sub *|Hos- ti-|a.|
w: ||||
V:2
 E2 | E4 D4 | E4 x2 E2 | E2 E2 E2 C2 | E4 x2 E2 | E4 D4 | E4 x2 E2 | E2 E2 E2 E2 | E4 x4 | G4 G4 | %10
 E4 E4 | (F4 E4) | E4 x4 | B,4 E4 | E4 F4 | (E2 F2) (E2 D2) | E4 x4 | (G2 F2) (G2 B2) | %18
 (A2 G2) A4 | (G2 A2) (G2 A2) | (A4 G4) | (F2 E2) D4 | (E2 A2) G4 | E4 E4 | E6 |] %25
V:3
 E,2 | A,4 A,4 | A,4 z2 C2 | A,2 A,2 G,2 A,2 | G,4 z2 E,2 | A,4 A,4 | C4 z2 B,2 | A,2 G,2 A,2 B,2 | %8
 C4 z4 | B,4 B,4 | A,4 A,4 | A,8 | G,4 z4 | G,2 A,2 B,2 C2 | G,2 A,2 B,2 D2 | C2 D2 C2 B,2 | %16
 C4 z4 | E4 E4 | E2 D2 C4 | E4 D2 E2 | E8 | C4 B,2 G,2 | A,2 E2 F4 | C4 B,2 D2 | C6 |] %25
V:4
 E,2 | C,4 D,4 | C,4 x2 A,,2 | A,,2 C,2 E,2 F,2 | E,4 x2 E,2 | C,4 D,4 | A,,4 x2 G,,2 | %7
 A,,2 B,,2 C,2 E,2 | [A,,A,]4 x4 | E,4 E,4 | A,,4 A,,4 | D,4 A,,4 | E,4 x4 | E,4 E,4 | E,4 D,4 | %15
 E,4 E,4 | [A,,A,]4 x4 | E,4 E,4 | A,4 A,4 | E,2 A,2 B,2 A,2 | E,8 | F,2 C,2 D,2 E,2 | %22
 A,,4 B,,2 D,2 | E,4 E,4 | [A,,A,]6 |] %25

